website/static/img/icons/smiley-face.svg

<svg fill="none" height="27" viewBox="0 0 27 27" width="27" xmlns="http://www.w3.org/2000/svg"><path d="m16.686 16.5105c-.9024.7276-2.0268 1.1244-3.186 1.1244s-2.2835-.3968-3.186-1.1244c-.2757-.2292-.63112-.3394-.98809-.3065-.35698.0329-.68626.2063-.9154.482-.22915.2757-.3394.6311-.30648.9881.03291.357.20628.6862.48197.9154 1.37881 1.151 3.1179 1.7815 4.914 1.7815s3.5352-.6305 4.914-1.7815c.2757-.2292.4491-.5584.482-.9154s-.0773-.7124-.3065-.9881c-.1135-.1365-.2527-.2493-.4098-.332-.157-.0827-.3288-.1337-.5056-.15-.357-.0329-.7124.0773-.9881.3065zm-7.236-4.3605c.26701 0 .52802-.0792.75-.2275.222-.1484.3951-.3592.4972-.6059.1022-.2467.129-.5181.0769-.78-.0521-.2618-.1807-.5024-.3695-.6912s-.42935-.31737-.69122-.36946c-.26188-.05209-.53332-.02536-.78.07682s-.45752.27521-.60586.49724c-.14834.222-.22752.483-.22752.75 0 .358.14224.7014.39541.9546s.59655.3954.95459.3954zm8.1-2.7c-.267 0-.528.07917-.75.22751s-.3951.35919-.4972.60589c-.1022.2467-.1289.5181-.0769.78.0521.2618.1807.5024.3695.6912s.4294.3174.6912.3695c.2619.052.5333.0253.78-.0769.2467-.1021.4575-.2752.6059-.4972.1483-.222.2275-.483.2275-.75 0-.358-.1422-.7014-.3954-.9546-.2532-.25317-.5966-.3954-.9546-.3954zm-4.05-9.45c-2.67 0-5.28013.791761-7.50019 2.27516-2.22007 1.4834-3.95039 3.59181-4.97218 6.05861-1.02178067 2.46683-1.289126 5.18123-.768225 7.79993.5209 2.6188 1.806655 5.0242 3.694655 6.9122 1.88801 1.888 4.29348 3.1738 6.91224 3.6947 2.6187.5209 5.3331.2536 7.7999-.7682s4.5752-2.7521 6.0586-4.9722 2.2752-4.8302 2.2752-7.5002c0-1.7728-.3492-3.52833-1.0276-5.16623-.6785-1.63789-1.6729-3.12612-2.9265-4.37971-1.2535-1.25359-2.7418-2.248-4.3797-2.92643-1.6379-.678442-3.3934-1.02763-5.1662-1.02763zm0 24.3c-2.136 0-4.2241-.6334-6.00015-1.8201-1.77605-1.1868-3.16032-2.8735-3.97774-4.8469-.81743-1.9735-1.03131-4.145-.61458-6.24.41672-2.09497 1.44531-4.01935 2.95572-5.52975 1.51041-1.51041 3.43478-2.53901 5.52975-2.95573 2.095-.41672 4.2665-.20285 6.24.61458 1.9734.81743 3.6602 2.20169 4.8469 3.97774s1.8201 3.86416 1.8201 6.00016c0 2.8643-1.1379 5.6114-3.1632 7.6367-2.0254 2.0254-4.7725 3.1633-7.6368 3.1633z" fill="#ff694a"/></svg>

<svg width="27" height="27" viewBox="0 0 27 27" fill="none" xmlns="http://www.w3.org/2000/svg">
<path d="M16.686 16.5105C15.7836 17.2381 14.6592 17.6349 13.5 17.6349C12.3408 17.6349 11.2165 17.2381 10.314 16.5105C10.0383 16.2813 9.68288 16.1711 9.32591 16.204C8.96893 16.2369 8.63965 16.4103 8.41051 16.686C8.18136 16.9617 8.07111 17.3171 8.10403 17.6741C8.13694 18.0311 8.31031 18.3603 8.586 18.5895C9.96481 19.7405 11.7039 20.371 13.5 20.371C15.2961 20.371 17.0352 19.7405 18.414 18.5895C18.6897 18.3603 18.8631 18.0311 18.896 17.6741C18.9289 17.3171 18.8187 16.9617 18.5895 16.686C18.476 16.5495 18.3368 16.4367 18.1797 16.354C18.0227 16.2713 17.8509 16.2203 17.6741 16.204C17.3171 16.1711 16.9617 16.2813 16.686 16.5105ZM9.45 12.15C9.71701 12.15 9.97802 12.0708 10.2 11.9225C10.422 11.7741 10.5951 11.5633 10.6972 11.3166C10.7994 11.0699 10.8262 10.7985 10.7741 10.5366C10.722 10.2748 10.5934 10.0342 10.4046 9.8454C10.2158 9.6566 9.97525 9.52803 9.71338 9.47594C9.4515 9.42385 9.18006 9.45058 8.93338 9.55276C8.6867 9.65494 8.47586 9.82797 8.32752 10.05C8.17918 10.272 8.1 10.533 8.1 10.8C8.1 11.158 8.24224 11.5014 8.49541 11.7546C8.74858 12.0078 9.09196 12.15 9.45 12.15ZM17.55 9.45C17.283 9.45 17.022 9.52917 16.8 9.67751C16.578 9.82585 16.4049 10.0367 16.3028 10.2834C16.2006 10.5301 16.1739 10.8015 16.2259 11.0634C16.278 11.3252 16.4066 11.5658 16.5954 11.7546C16.7842 11.9434 17.0248 12.072 17.2866 12.1241C17.5485 12.1761 17.8199 12.1494 18.0666 12.0472C18.3133 11.9451 18.5241 11.772 18.6725 11.55C18.8208 11.328 18.9 11.067 18.9 10.8C18.9 10.442 18.7578 10.0986 18.5046 9.8454C18.2514 9.59223 17.908 9.45 17.55 9.45ZM13.5 0C10.83 0 8.21987 0.791761 5.99981 2.27516C3.77974 3.75856 2.04942 5.86697 1.02763 8.33377C0.00584933 10.8006 -0.261496 13.515 0.259405 16.1337C0.780305 18.7525 2.06606 21.1579 3.95406 23.0459C5.84207 24.9339 8.24754 26.2197 10.8663 26.7406C13.485 27.2615 16.1994 26.9942 18.6662 25.9724C21.133 24.9506 23.2414 23.2203 24.7248 21.0002C26.2082 18.7801 27 16.17 27 13.5C27 11.7272 26.6508 9.97167 25.9724 8.33377C25.2939 6.69588 24.2995 5.20765 23.0459 3.95406C21.7924 2.70047 20.3041 1.70606 18.6662 1.02763C17.0283 0.349188 15.2728 0 13.5 0ZM13.5 24.3C11.364 24.3 9.2759 23.6666 7.49985 22.4799C5.7238 21.2931 4.33953 19.6064 3.52211 17.633C2.70468 15.6595 2.4908 13.488 2.90753 11.393C3.32425 9.29803 4.35284 7.37365 5.86325 5.86325C7.37366 4.35284 9.29803 3.32424 11.393 2.90752C13.488 2.4908 15.6595 2.70467 17.633 3.5221C19.6064 4.33953 21.2932 5.72379 22.4799 7.49984C23.6666 9.27589 24.3 11.364 24.3 13.5C24.3 16.3643 23.1621 19.1114 21.1368 21.1367C19.1114 23.1621 16.3643 24.3 13.5 24.3Z" fill="#FF694A"/>
</svg>
